icon_installer/data/icons/scalable/actions/show-computer-chip-symbolic.svg

<?xml version="1.0" encoding="UTF-8"?>
<svg height="16px" viewBox="0 0 16 16" width="16px" xmlns="http://www.w3.org/2000/svg">
    <g fill="#2e3436">
        <path d="m 8.03125 0.996094 c -0.03125 0 -0.066406 0 -0.101562 0.003906 c -0.515626 0.042969 -0.914063 0.472656 -0.917969 0.992188 l -0.007813 1.007812 h -1.988281 l 0.019531 -0.980469 c 0.003906 -0.28125 -0.109375 -0.554687 -0.3125 -0.746093 c -0.203125 -0.195313 -0.480468 -0.292969 -0.761718 -0.269532 c -0.515626 0.035156 -0.917969 0.460938 -0.925782 0.980469 l -0.023437 1.277344 c -1.183594 0.503906 -2.011719 1.671875 -2.011719 3.046875 v 4.386718 c 0 1.375 0.832031 2.546876 2.019531 3.046876 v 1.257812 c 0 0.550781 0.449219 1 1 1 c 0.554688 0 1 -0.449219 1 -1 v -1 h 1.980469 v 1 c 0 0.550781 0.449219 1 1 1 s 1 -0.449219 1 -1 v -1 h 2 v 1 c 0 0.550781 0.449219 1 1 1 s 1 -0.449219 1 -1 v -1.265625 c 1.179688 -0.507813 2 -1.675781 2 -3.039063 v -4.386718 c 0 -1.367188 -0.820312 -2.53125 -1.996094 -3.035156 l 0.011719 -1.265626 c 0 -0.28125 -0.113281 -0.550781 -0.320313 -0.742187 c -0.207031 -0.191406 -0.484374 -0.289063 -0.765624 -0.265625 c -0.515626 0.042969 -0.914063 0.472656 -0.914063 0.992188 l -0.011719 1.007812 h -1.996094 l 0.007813 -0.992188 c 0.003906 -0.550781 -0.433594 -1 -0.980469 -1.011718 z m -3.722656 4.003906 h 7.386718 c 0.722657 0 1.304688 0.582031 1.304688 1.308594 v 4.386718 c 0 0.257813 -0.074219 0.5 -0.207031 0.699219 c -0.1875 -0.246093 -0.480469 -0.394531 -0.792969 -0.394531 c -0.550781 0 -1 0.449219 -1 1 h -2 c 0 -0.550781 -0.449219 -1 -1 -1 s -1 0.449219 -1 1 h -1.980469 c 0 -0.550781 -0.445312 -1 -1 -1 c -0.316406 0.003906 -0.613281 0.160156 -0.800781 0.417969 c -0.136719 -0.207031 -0.21875 -0.457031 -0.21875 -0.722657 v -4.386718 c 0 -0.726563 0.582031 -1.308594 1.308594 -1.308594 z m 0 0"/>
        <path d="m 3 10 c 0 0.546875 0.46875 1 1.019531 1 h 7.980469 c 0.59375 0 1 -0.515625 1 -1 h 1 v 0.933594 l -2 2.046875 l -8 0.019531 l -2 -2.304688 v -0.695312 z m 0 0"/>
    </g>
</svg>

<svg xmlns="http://www.w3.org/2000/svg" width="16" height="16"><g fill="#2e3436"><path d="M8.031.996c-.031 0-.066 0-.101.004a1.002 1.002 0 0 0-.918.992L7.004 3H5.016l.02-.98a1.009 1.009 0 0 0-.313-.747.98.98 0 0 0-.762-.27.995.995 0 0 0-.926.981l-.023 1.278A3.302 3.302 0 0 0 1 6.309v4.386c0 1.375.832 2.547 2.02 3.047V15a1 1 0 1 0 2 0v-1H7v1c0 .55.45 1 1 1s1-.45 1-1v-1h2v1c0 .55.45 1 1 1s1-.45 1-1v-1.266c1.18-.507 2-1.675 2-3.039V6.31c0-1.368-.82-2.532-1.996-3.036l.012-1.265A1.007 1.007 0 0 0 11.93 1a.996.996 0 0 0-.914.992L11.004 3H9.008l.008-.992c.004-.551-.434-1-.98-1.012zM4.31 5h7.386C12.418 5 13 5.582 13 6.309v4.386c0 .258-.074.5-.207.7A1 1 0 0 0 11 12H9c0-.55-.45-1-1-1s-1 .45-1 1H5.02a1 1 0 0 0-1-1c-.317.004-.614.16-.801.418A1.313 1.313 0 0 1 3 10.695V6.31C3 5.582 3.582 5 4.309 5zm0 0"/><path d="M3 10c0 .547.469 1 1.02 1H12c.594 0 1-.516 1-1h1v.934l-2 2.046L4 13l-2-2.305V10zm0 0"/></g></svg>
